X:1
T:Missa pro defunctis
T:Caspar Ett
T:Requiem - Missa pro defunctis - IV voc.
C:Caspar Ett
%%score [ 1 2 3 4 ]
L:1/8
Q:1/4=76
M:4/4
K:Eb
V:1 treble nm="S"
V:2 treble nm="A"
V:3 treble-8 nm="T"
V:4 bass nm="B"
V:1
!p!"^Comodo" G8 | F8 | E4 E4 |!<(! E8!<)! |!>(! E8!>)! | E3!<(! F G2 =A2!<)! | B3 B B4 | %7
w: Re-|qui-|em ae-|ter-|nam|do- na e- is|Do- mi- ne,|
 z2!f! d2 d2 d2 | d3 d d4 | c3 c c4 | (c2 e4) dd |!>(! c8!>)! | B8 | z8 | z8 | %15
w: et lux per-|pe- tu- a|lu- ce- at,|lu- * ce- at|e-|is.|||
 z2!mf!"^Solo" B2 B2 BB |!<(! c6!<)! c2 | B6 B2 |!>(! A6!>)! G2 | F3 F F4 | z8 | z8 | z8 | z8 | %24
w: et ti- bi red-|de- tur|vo- tum|in Je-|ru- sa- lem.|||||
 z8 |!p!"^Tutti" G8 | F8 | E4 E4 |!<(! E8!<)! |!>(! E8!>)! |!<(! E3 F!<)! G2 =A2 | B3 B B4 | %32
w: |Re-|qui-|em ae-|ter-|nam|do- na e- is|Do- mi- ne,|
 z2!f! d2 d2 d2 | e3 e e4 | c3!>(! F F4!>)! | (F2 A4) GG | F8 | !fermata!E8 |] %38
w: et lux per-|pe- tu- a|lu- ce- at,|lu- * ce- at|e-|is.|
[K:Bb][M:4/4][Q:1/4=80]!mf! G4 A4 |!<(! B4 c4!<)! |!>(! d8!>)! | G4 z4 | z2 A4 G2- | G2 F2 =E3 ^F | %44
w: Ky- ri-|e e-|lei-|son,|e- lei-||
 G2!mf! G4 ^F2 | G2 B4 AG | ^F2!>(! G4!>)! F2 | !fermata!G8 || z2!mf!!<(! G2 A2!<)! =B2 | %49
w: son, Ky- ri-|e e- * *|* lei- *|son.|Chri- ste e-|
 cG G2 z4 | z2 c4 _BB |!>(! A4 G4!>)! | F2 F2 G2 A2 | B4 z4 | z2!f! d4 c2- | c2 BA!>(! B4- | %56
w: le- i- son,|Chri- ste e-|le- i-|son, e- lei- *|son,|Chri- ste|* e- * lei-|
 B2 A!>)!G !fermata!A4 || z8 | z2!mf! A4 G2 | G2 F2 =E3 ^F | G2 G4 ^F2 | G2 B4 AG | %62
w: * * * son.||Ky- ri-|e e- lei- *|son, Ky- ri-|e e- * *|
 ^F2!>(! G4 F2!>)! | G2!f! G3 G G2 | z2!f! G2 G4- | G8 | !fermata!G8 |] %67
w: * lei- *|son, Ky- ri- e|e- lei-||son.|
[K:Eb][M:4/4][Q:1/4=80]!p! E2 G4 F2 | E3 E E4 | E3 E F4 | G3 G G2 G2 |!<(! G2 G!<)!G =A2 A2 | %72
w: Ab- sol- ve,|Do- mi- ne,|a- ni- mas|om- ni- um fi-|de- li- um de- func-|
 B4 B4 | z2!mf! B2 B2 B2 | c3 c c4 | =A4 B4 | B4 =A4 | z2 B2 B3 B | B2!>(! !^!=A4 A2!>)! | %79
w: to- rum|ab om- ni|vin- cu- lo|de- li-|cto- rum,|et gra- ti-|a tu- a|
!<(! G2 G2 G2!<)! G2 |!>(! G4 ^F4!>)! | ^F3 F F2 FF | G3 G G2 G2 |!<(! G2 GG G2!<)! G2 | %84
w: il- lis suc- cur-|ren- te,|me- re- an- tur e-|va- de- re ju-|di- ci- um~ ul- ti-|
 B4 B2!mf! B2 | B4 G2 G2 |!>(! G4!>)! E2 E2 | F4 G4 | F3 F F4 |!<(! F6!<)!!>(! F2!>)! | %90
w: o- nis, et|lu- cis ae-|ter- nae be-|a- ti-|tu- di- ne|per- fru-|
 !fermata!G8 |][M:4/4]!p![Q:1/4=78] E3 E E4 |!<(! E4 E4!<)! |!>(! E4!>)! E2!mf! F2 | G3 G G4 | %95
w: i.|Do- mi- ne|Je- su|Chri- ste, Rex|glo- ri- ae,|
 B2 BB B2 BB | B3 A A2 A2 | A2 AA A2 A2 | A4 G2 G2 | G4 G2 G2 |!>(! G4 F2!>)!!p! F2 | F2 F2 F2 F2 | %102
w: li- be- ra a- ni- mas|om- ni- um fi-|de- li- um~ de- func-|to- rum~ de|poe- nis in-|fer- ni et|de pro- fun- do|
 F4 E4 | E3!<(! E F4!<)! | G4 G2 G2 | G4 F2 F2 | G4 G2 GG | G2 GG G2 G2 | A3 A A2!mf! A2 | %109
w: la- cu:|li- be- ra|e- as de|o- re le-|o- nis, ne ab-|sor- be- at e- as|tar- ta- rus, ne|
 A2 A2 A2 A2 |!>(! G4!>)! G2!mf! G2 |!<(! B3 B B4!<)! | B4 c4 | d3 d d4 | d2 d2 c2 B2 | %115
w: ca- dant in obs-|cu- rum: sed|sig- ni- fer|sanc- tus|Mi- cha- el|re- prae- sen- tet|
 =A2 AA B2 B2 | (B2!>(! =AG A4) | B8!>)! | z2!p! F2 F2 F2 |!<(! G3 G!<)! G4 | z2 G4 G2 | %121
w: e- as in lu- cem|sanc- * * *|tam:|Quam o- lim|Ab- ra- hae|pro- mi-|
 _A4 A2 A2 | A3!>(! A G4!>)! |!<(! (F4 G4!<)! |!>(! F8)!>)! | !fermata!G8 || z8 | z8 | z8 | z8 | %130
w: sis- ti, et|se- mi- ni|e- *||jus.|||||
 z8 | z8 | z8 | z8 | z8 | z8 | z8 | z8 | z8 | z8 | z8 | z8 |"^Sopran""^Tutti" z2!p! F2 F2 F2 | %143
w: ||||||||||||Quam o- lim|
!<(! G3 G!<)! G4 | z2 G4 G2 | A4 A2 A2 | A3!>(! A G4!>)! |!<(! (F4 G4!<)! |!>(! F8)!>)! | %149
w: Ab- ra- hae|pro- mi-|sis- ti, et|se- mi- ni|e- *||
 !fermata!G8 |][K:Bb][M:4/4][Q:1/4=76]!p! F8 | !fermata!F8 |!mf! B8 | !fermata!A8 |!<(! B4 B4!<)! | %155
w: jus.|Sanc-|tus,|sanc-|tus,|sanc- tus|
!f! d3 d d4 | c4 B4 |!>(! f3!>)! F !fermata!F4 ||!f! ^F4 A2 A2 |!>(! d4 G2!>)!!p! G2 |!<(! G8!<)! | %161
w: Do- mi- nus|De- us|Sa- ba- oth.|Ple- ni sunt|coe- li et|ter-|
!>(! G8!>)! |!<(! ^F3 F!<)! G4 |!>(! G4 ^F4!>)! |!f! A3 A A4 |!>(! A4 A4!>)! | %166
w: ra|glo- ri- a|tu- a,|glo- ri- a|tu- a.|
[Q:1/4=90]"^poco più mosso" z8 | z8 | z4 z2!f! f2 | d3 B c2 d2 | e2 dc d2 cB | A2!>(! B4 A2!>)! | %172
w: ||O-|san- na in ex-|cel- * * * * *||
 !fermata!B8 |][M:4/4]!p![Q:1/4=72] F6!<(! F2 | ^F4!<)! F2 F2 | G4 G2 G2 |!>(! ^F3 F!>)! G4 | %177
w: sis.|Be- ne-|dic- tus, qui|ve- nit in|no- mi- ne|
 G3 ^F F2!<(! F2!<)! |!mf! A3 A A4 | A3!>(! A A4!>)! |[Q:1/4=90]"^più mosso" z8 | z8 | %182
w: Do- mi- ni, in|no- mi- ne|Do- mi- ni.|||
 z4 z2!f! f2 | d3 B c2 d2 | e2 dc d2 cB | A2!>(! B4 A2!>)! | !fermata!B8 |][M:4/4][Q:1/4=72] z8 | %188
w: O-|san- na in ex-|cel- * * * * *||sis.||
 z4!p! D4 | E2 EE D2 D2 | D4 D4 | z2!mf! G4 G2 | G4 G4 | (^F4 G4-) | G2 ^F=E !fermata!F4 || z8 | %196
w: Qui|tol- lis pec- ca- ta|mun- di:|do- na|e- is|re- *|* qui- * em.||
 z4!p! =F4 | G2 GG F2 F2 | F4 F4 | z2!mf! B4 B2 | B4 B4 | (A4 B4-) | B2 AG !fermata!A4 || z8 | %204
w: qui|tol- lis pec- ca- ta|mun- di:|do- na|e- is|re- *|* qui- * em.||
 z4!mf! A4 | B2 BB A2 A2 |!>(! A4 A4!>)! | z2!<(! d4 d2!<)! | d4 d4 | d3 c c2 c2- | %210
w: Qui|tol- lis pec- ca- ta|mun- di:|do- na|e- is|re- qui- em sem-|
 c2!>(! B2 A4!>)! | !fermata!G8 |][K:Eb][M:4/4][Q:1/4=80] z8 | z8 | z8 | z8 | z8 |!p!"^Tutti" G8 | %218
w: * pi- ter-|nam.||||||Re-|
 F8 | E4 E4 |!<(! E8!<)! |!>(! E8!>)! | E3 F!<(! G2 =A2!<)! | B3 B B4 | z2!f! d2 d2 d2 | e3 e e4 | %226
w: qui-|em ae-|ter-|nam|do- na e- is|Do- mi- ne|et lux per-|pe- tu- a|
!>(! c3 F F4!>)! | (F2 A4) GG |!>(! F8!>)! |[Q:1/4=72]"^ritenuto" E8 | z2!<(! G4!<)! G2 | %231
w: lu- ce- at,|lu- * ce- at|e-|is.|in ae-|
 c3 c!>(! A2 F2!>)! | G8 | F8 | !fermata!E8 |] %235
w: ter- num: qui- a|pi-|us|es.|
V:2
!p! E8 | D8 | B,4 B,4 |!<(! C8!<)! |!>(! B,8!>)! | E3!<(! D E2 E2!<)! | F3 F F4 | z2!f! F2 F2 F2 | %8
w: ||||||||
 B3 B B4 | B3 B B4 |"^lu-ce-at" =A3 A B2"^e   -" B2- |!>(! B2"^-" =AG A4!>)! | F8 | %13
w: ||||is.|
 z2"^Soli"!mf! B2 D2 E2 | F2 D2 E2 FF | G4 F4 | z2!<(! G2 _A2 A!<)!A | F2 F2 G2 G2 | %18
w: Te de- cet|hym- nus De- us in|Si- on|et ti- bi red-|de- tur vo- tum|
!>(! (C4 D2)!>)! E2 | D3 D D4 | z2!mf! G2 G2 EE | F3 G A2 A2 | A4 G4 | z2 G2!<(! G2 G2!<)! | %24
w: in * Je-|ru- sa- lem,|ex- au- di o-|ra- ti- o- nem|me- am,|ad te, ad|
 c4 A2 F2 |!>(! E6!p! E2!>)! | E2 DC D4 |"^Tutti" E3 E!<(! _D2 D2!<)! | C8 |!>(! B,8!>)! | %30
w: te om- nis|ca- ro|ve- ni- * et.|Re- qui- em ae-|ter-|nam|
!<(! E3 D!<)! E2 E2 | F3 F F4 | z2!f! F2 F2 F2 | E3 E E4 | E3!>(! E E4!>)! | %35
w: |||||
"^lu - ce-at" D3 D E2"^e   -" E2- | E2"^-" DC D4 |"^is." !fermata!B,8 |][K:Bb][M:4/4] z8 | z8 | %40
w: |||||
 z8 |!mf! D4!<(! =E4!<)! | F4 G4 | A8 | D4 z4 | z2!mf! D4 C2- | C2 B,2 A,4 | !fermata!G,8 || z8 | %49
w: |Ky- ri-|e e-|lei-|son,|e- lei-||son.||
!mf! G4 F2 F2 | E4 D4 |!>(! C2 C2 D2 =E2!>)! | F4 z4 | z2!>(! F4 _E!>)!E |!<(! D2 F2!<)! G4 | %55
w: Chri- ste e-|lei- *|son, e- lei- *|son,|Chri- ste e-|lei- * *|
 ^F4!>(! G4- | G2 ^F!>)!=E !fermata!F4 || z2!mf! D4 ^C2 | D2 F4 =ED | ^C2 D4 =C2 | B,4 A,4 | %61
w: |* * * son.|Ky- ri-|e e- * *|* lei- *||
 G,4 E4 |!>(! D8!>)! | D2!f! D3 D D2 | z2!f! D2 E2 F2- | F2 ED E4 | !fermata!D8 |] %67
w: son, e-|lei-|son, Ky- ri- e|e- lei- *||son.|
[K:Eb][M:4/4]!p! B,2 E4 D2 | B,3 B, B,4 | C3 C D4 | E3 E E2 E2 |!<(! D2 D!<)!D ^F2 F2 | G4 G4 | %73
w: ||||||
 z2!mf! G2 G2 G2 | G3 G G4 | F4 F4 |!>(! F4!>)! F4 | z2 D2 D3 D | D2!>(! !^!^F4 F2!>)! | %79
w: ||||||
!<(! G2 E2 B,2!<)! C2 |!>(! D4 D4!>)! | D3 D D2 DD | D3 D D2 D2 |!<(! E2 EE E2!<)! E2 | F4 F4 | %85
w: ||||||
 z2!p! G2 G4 |!>(! E2 B,2!>)! B,4 | D2 D2 E2 E2 | D3 D E4 |!<(! (E2 DC!<)!!>(! D2) D2!>)! | %90
w: et lu-|cis ae- ter-|nae~ be- a- ti-|tu- di- ne|per- * * * fru-|
 !fermata!E8 |][M:4/4]!p! B,3 B, B,4 |!<(! B,4 B,4!<)! |!>(! C4!>)! C2!mf! D2 | E3 E E4 | %95
w: i.|||||
 G2 GG E2 EE | E3 E F2 F2 | F2 FF F2 F2 | E4 E2 E2 | E4 E2 E2 |!>(! D4 D2!>)!!p! D2 | D2 D2 D2 D2 | %102
w: |||||||
 C4 C4 | C3!<(! C D4!<)! | E4 E2 E2 | E4 C2 C2 | D4 D2 DD | E2 EE E2 E2 | F3 F F2!mf! F2 | %109
w: |||||||
 F2 F2 F2 F2 |!>(! (F2 ED)!>)! E2!mf! E2 |!<(! G3 G G4!<)! | F4 F4 | F3 F F4 | B2 B2 G2 G2 | %115
w: ||||||
 F2 FF F2 F2 |!>(! F8 | F8!>)! | z2!p! D2 D2 D2 |!<(! D3 D!<)! D4 | z2 =E4 E2 | F4 F2 F2 | %122
w: |||||||
 F3!>(! F E4!>)! |!<(! (D4 E4-!<)! | E2 D!>(!C D4)!>)! | !fermata!E8 ||!p!"^Soli" F3 D D2 D2 | %127
w: ||||Hos- ti- as et|
 C2 C2 C2 D2 | E2 EE E2 EE | E3 D D4 |!mf! B2 B4 =AA | G2 GG G2 G2 | G2 F2 =A2 A2 | =A3 ^F F2 F2 | %134
w: pre- ces ti- bi,|Do- mi- ne, lau- dis of-|fe- ri- mus:|tu sus- ci- pe|pro a- ni- ma- bus|il- lis, qua- rum|ho- di- e me-|
 G3 G G4 | G3!>(! ^F F4!>)! | G2!<(! B4 =A2!<)! | B3 B B2 F2 | G4 G2 G2 | C4 D2 D2 |!>(! C8!>)! | %141
w: mo- ri- am|fa- ci- mus,|fac e- as,|Do- mi- ne, de|mor- te trans-|i- re ad|vi-|
 D8 | z2!p! D2 D2 D2 |!<(! D3 D!<)! D4 | z2 =E4 E2 | F4 F2 F2 | F3!>(! F _E4!>)! | %147
w: tam:||||||
!<(! (D4 E4-!<)! | E2 D!>(!C D4)!>)! | !fermata!E8 |][K:Bb][M:4/4]!p! D8 | !fermata!C8 |!mf! F8 | %153
w: ||||||
 !fermata!F8 |!<(! D4 G4!<)! |!f! F3 F F4 | G4 G2 B2- |!>(! B2 AG!>)! !fermata!A4 ||!f! A4 ^F2 F2 | %159
w: ||||||
!>(! G4 G2!>)!!p! D2 |!<(! E8!<)! |!>(! D8!>)! |!<(! D3 D!<)! D4 |!>(! D4 D4!>)! |!f! ^F3 F G4 | %165
w: ||||||
!>(! G4 ^F4!>)! | z8 | z4 z2!f! c2 | A3 F G2 A2 | B2 _AG A2 GF | E2 E2 D2 =E2 |!>(! F8!>)! | %172
w: ||O-|san- na in ex-|cel- * * * * *|* sis, in ex-|cel-|
 !fermata!F8 |][M:4/4]!p! D6!<(! D2 | D4!<)! D2 D2 | E4 E2 C2 |!>(! D3 D!>)! D4 | %177
w: sis.|||||
 D3 D D2!<(! D2!<)! |!mf! ^F3 F G4 | G3!>(! ^F F4!>)! | z8 | z4 z2!f! c2 | A3 F G2 A2 | %183
w: ||||O-|san- na in ex-|
 B2 _AG A2 GF | E2 E2 D2!>(! =E2 | F8!>)! | !fermata!F8 |][M:4/4] z8 | z4!p! B,4 | C2 CC C2 C2 | %190
w: cel- * * * * *|* sis, in ex-|cel-|sis.||Qui|tol- lis pec- ca- ta|
 C4 B,4 | z2!mf! E4 E2 | E4 E4 | D6 D2 | !fermata!D8 || z8 | z4!p! D4 | E2 EE E2 E2 | E4 D4 | %199
w: mun- di:|do- na|e- is|re- qui-|em.||Qui|tol- lis pec- ca- ta|mun- di:|
 z2!mf! G4 G2 | G4 G4 | F6 F2 | !fermata!F8 || z8 | z4!mf! ^F4 | G2 GG G2 G2 |!>(! G4 ^F4!>)! | %207
w: do- na|e- is|re- qui-|em.||Qui|tol- lis pec- ca- ta|mun- di:|
 z2!<(! A4 A2!<)! | B4 G4 | G3 G G4 | ^FF (G4 F2) | !fermata!G8 |] %212
w: do- na|e- is|re- qui- em|sem- pi- ter- *|nam.|
[K:Eb][M:4/4]!p!"^Soli" G3 G G2 E2 | F2 FG A2 A2 | A3 G G4 | z2!<(! G4 G2!<)! | %216
w: Lux ae- ter- na|lu- ce- at e- is|Do- mi- ne|in ae-|
 c3 c!>(! A2 F2!>)! |!p! E8- | E2 D2 D4 |"^Tutti" E3 E _D2 D2 |!<(! C8!<)! |!>(! B,8!>)! | %222
w: ter- num~ qui- a|pi-|* us es.|Re- qui- em ae-|ter-|nam|
 E3 D!<(! E2 E2!<)! | F3 F F4 | z2!f! F2 F2 F2 | E3 E E4 |!>(! E3 E E4!>)! | D3 D E2 E2- | %228
w: do- na e- is|Do- mi- ne|et lux per-|pe- tu- a|lu- ce- at,|lu- ce- at e-|
!>(! E2 DC D4!>)! | B,8 | z2!<(! E4!<)! E2 | E3 E!>(! C2 C2!>)! | E8 | D8 | !fermata!B,8 |] %235
w: |is.|in ae-|ter- num: qui- a|pi-|us|es.|
V:3
!p! B8 | A8 | G4 G4 |!<(! A8!<)! |!>(! G8!>)! | B3!<(! B B2 c2!<)! | d3 d d4 | z2!f! d2 d2 d2 | %8
w: Re-|qui-|em ae-|ter-|nam|do- na e- is|Do- mi- ne,|et lux per-|
 d3 d d4 | g3 g g4 | f2 c2 (d3 e) |"^e"!>(! (f6"^-" e2)!>)! |"^is." d8 | z2!mf! B2 B2 c2 | %14
w: pe- tu- a|lu- ce- at,|lu- ce- at _|_ _|||
 d2 B2 c2 dd | e4 d4 | z2!<(! =e2 f2 f!<)!f | d2 d2 _e2 e2 |!>(! A6!>)! B2 | B3 B B4 | %20
w: ||||||
 z2!mf! B2 B2 GG | A3 B c2 c2 | c4 B4 | z2 e2!<(! e2 e2!<)! | e4 c2 c2 |!>(! B6!p! G2!>)! | %26
w: ||||||
 B3 B B4 | G3!<(! G G2 G2!<)! | A8 |!>(! G8!>)! |!<(! B3 B!<)! B2 c2 | d3 d d4 | z2!f! B2 B2 B2 | %33
w: ||||do- na e- is|Do- mi- ne,|et lux per-|
 B3 B B4 | c3!>(! c c4!>)! | B2 F2 (G3 A) | (B6 A2) | !fermata!G8 |][K:Bb][M:4/4] z8 | %39
w: pe- tu- a|lu- ce- at,|lu- ce- at _|e- *|is.||
 z2!mf! d4 c2- | c2 B2 A4 | Bc!mf! d4!<(! ^c2 | d2!<)! f4 =ed | ^c2 d4!>(! =c2!>)! | B4 A4 | %45
w: e- lei-||son, * Ky- ri-|e e- * *|lei- * *||
 G4 _e4 | A2 Bc d4 | !fermata!d8 || z8 | z2!mf!!<(! G2!<)! A2 =B2 | cG G2 z4 | z2!>(! c4 BB!>)! | %52
w: son, e-|lei- * * *|son.||Chri- ste e-|le- i- son,|Chri- ste e-|
 A4 G4 | F2!<(! F2 G2 A2!<)! | B4!f! G4 |!>(! A2 Bc B2 G2!>)! | !fermata!d8 ||!mf! D4 =E4 | %58
w: lei- *|son, e- lei- *|son, e-|lei- * * * *|son.|Ky- ri-|
!<(! F4 G4!<)! | A8 | D4 z4 | z2 d4 c2- | c2!>(! B2 A4!>)! | G2!f! =B3 B B2 | %64
w: e e-|lei-|son,|e- lei-||son, Ky- ri- e|
 z2!mf!!<(! =B2 c2 d2-!<)! | d2 c=B!>(! c4!>)! | !fermata!=B8 |][K:Eb][M:4/4]!p! G2 B4 B2 | %68
w: e- lei- *||son.|Ab- sol- ve,|
 G3 G G4 | G3 G B4 | B3 B B2 B2 |!<(! B2 B!<)!B d2 d2 | d4 d4 | z2!mf! d2 d2 d2 | e3 e e4 | e4 d4 | %76
w: Do- mi- ne,|a- ni- mas|om- ni- um fi-|de- li- um de- func-|to- rum|ab om- ni|vin- cu- lo|de- li-|
 d4 c4 | z2 B2 B3 B | B2!>(! !^!d4 c2!>)! |!<(! B2 B2 G2!<)! G2 |!>(! =A4 A4!>)! | =A3 A A2 AA | %82
w: cto- rum,|et gra- ti-|a tu- a|il- lis suc- cur-|ren- te,|me- re- an- tur e-|
 d3 d d2 d2 |!<(! c2 cc c2!<)! e2 | e4 d4 | z2!p! B2 B4 |!>(! G2 G2!>)! G4 | B2 B2 B2 B2 | %88
w: va- de- re ju-|di- ci- um ul- ti-|o- nis,|et lu-|cis ae- ter-|nae be- a- ti-|
 B3 B c4 |!<(! B6!<)!!>(! B2!>)! | !fermata!B8 |][M:4/4]!p! G3 G G4 |!<(! G4 G4!<)! | %93
w: tu- di- ne|per- fru-|i.|Do- mi- ne|Je- su|
!>(! A4!>)! G2!mf! B2 | B3 B B4 | e2 ee B2 BB | c3 c c2 c2 | c2 cc B2 B2 | B4 B2 B2 | B4 A2 A2 | %100
w: Chri- ste, Rex|glo- ri- ae,|li- be- ra a- ni- mas|om- ni- um fi-|de- li- um de- func-|to- rum de|poe- nis in-|
!>(! A4 A2!>)!!p! A2 | A2 A2 G2 G2 | G4 G4 | G3!<(! G B4!<)! | B4 B2 B2 | c4 c2 c2 | c4 =B2 BB | %107
w: fer- ni et|de pro- fun- do|la- cu:|li- be- ra|e- as de|o- re le-|o- nis, ne ab-|
 c2 cc c2 c2 | c3 c c2!mf! c2 | d2 d2 d2 d2 |!>(! B4!>)! B2!mf! B2 |!<(! e3 e e4!<)! | d4 e4 | %113
w: sor- be- at e- as|tar- ta- rus, ne|ca- dant in obs-|cu- rum: sed|sig- ni- fer|sanc- tus|
 d3 d d4 | f2 f2 e2 d2 | c2 cc d2 d2 |!>(! c8 | d8!>)! | z2!p! B2 B2 B2 |!<(! =B3 B!<)! B4 | %120
w: Mi- cha- el|re- prae- sen- tet|e- as in lu- cem|sanc-|tam:|Quam o- lim|Ab- ra- hae|
 z2 c4 c2 | c4 c2 c2 | d3!>(! d B4!>)! |!<(! B8-!<)! |!>(! B8!>)! | !fermata!B8 ||!p! d3 B B2 B2 | %127
w: pro- mi-|sis- ti, et|se- mi- ni|e-||jus.|Hos- ti- as et|
 B2 =AG A2 =B2 | c2 cc _B2 cc | F3 F F4 |!mf! d2 d4 cc | B2 BB B2 B2 | B2 =A2 c2 c2 | c3 c c2 c2 | %134
w: pre- ces * ti- bi,|Do- mi- ne, lau- dis of-|fe- ri- mus:|||||
 B3 B B4 | =A3!>(! A A4!>)! | B4!<(! c2 c2!<)! | d3 d d2 d2 | d4 c2 B2 | =A4 B2 B2 | B2 =AG A4 | %141
w: ||fac e- as,|Do- mi- ne, de|mor- te trans-|i- re ad|vi- * * *|
 B8 | z2!p! B2 B2 B2 |!<(! =B3 B!<)! B4 | z2 c4 c2 | c4 c2 c2 | d3!>(! d B4!>)! |!<(! B8-!<)! | %148
w: tam:|Quam o- lim|Ab- ra- hae|pro- mi-|sis- ti, et|se- mi- ni|e-|
!>(! B8!>)! | !fermata!B8 |][K:Bb][M:4/4]!p! B8 | !fermata!A8 |!mf! d8 | !fermata!c8 | %154
w: |jus.|Sanc-|tus,|sanc-|tus,|
!<(! B4 e4!<)! |!f! d3 d d4 | e4 d2 d2- |!>(! d2 cB!>)! !fermata!c4 ||!f! d4 d2 d2 | %159
w: sanc- tus|Do- mi- nus|De- us Sa-|* ba- * oth.|Ple- ni sunt|
!>(! d4 d2!>)!!p! d2 |!<(! c8!<)! |!>(! B8!>)! |!<(! A3 A!<)! B4 |!>(! B4 A4!>)! |!f! d3 d =e4 | %165
w: coe- li et|ter-|ra|glo- ri- a|tu- a,|glo- ri- a|
!>(! d4 d4!>)! | z4 z2!f! g2 | =e3 c d2 e2 | f2 _ed e2 dc | B2 B2 z2 B2 | B3 A B2 c2 | %171
w: tu- a.|O-|san- na in ex-|cel- * * * * *|* sis, o-|san- na in ex-|
!>(! c2 d2!>)! c4 | !fermata!d8 |][M:4/4]!p! B6!<(! B2 | A4!<)! A2 A2 | c4 c2 G2 | %176
w: cel- * *|sis.|Be- ne-|dic- tus, qui|ve- nit in|
!>(! A3 A!>)! B4 | B3 A A2!<(! A2!<)! |!mf! d3 d =e4 | d3!>(! d d4!>)! | z4 z2!f! g2 | %181
w: no- mi- ne|Do- mi- ni, in|no- mi- ne|Do- mi- ni.|O-|
 =e3 c d2 e2 | f2 _ed e2 dc | B2 B2 z2 B2 | B3 A B2 c2 |!>(! c2 d2!>)! c4 | !fermata!d8 |] %187
w: san- na in ex-|cel- * * * * *|* sis, o-|san- na in ex-|cel- * *|sis.|
[M:4/4] z8 | z4!p! G4 | G2 GG ^F2 F2 | G4 G4 | z2!mf! B4 B2 | c4 c4 | (c4 B4-) | %194
w: |||||||
 B2"^qui - em." AG !fermata!A4 || z8 | z4!p! B4 | B2 BB A2 A2 | B4 B4 | z2!mf! d4 d2 | e4 e4 | %201
w: ||qui|tol- lis pec- ca- ta|mun- di|do- na|e- is|
 (e4 d4-) | d2 cB !fermata!c4 || z8 | z4!mf! d4 | d2 dd ^c2 c2 |!>(! d4 d4!>)! | %207
w: re- *|* qui- * em.||Qui|tol- lis pec- ca- ta|mun- di:|
 z2!<(! ^f4 f2!<)! | g4 d4 | e3 e e4 | A2 Bc (d3 c) | !fermata!B8 |][K:Eb][M:4/4]!p! e3 B B2 G2 | %213
w: do- na|e- is|re- qui- em|sem- pi- * ter- *|nam.||
 A2 AB c2 c2 | c3 B B4 | z2!<(! e4 e2!<)! | e3 e!>(! c2 c2!>)! |!p! B6 G2 | B8 | %219
w: ||in ae-|ter- num qui- a|pi- us|es.|
"^Tutti" G3 G G2 G2 |!<(! A8!<)! |!>(! G8!>)! | B3 B!<(! B2 c2!<)! | d3 d d4 | z2!f! B2 B2 B2 | %225
w: ||||||
 B3 B B4 |!>(! c3 c c4!>)! | B2 F2 G3 A |!>(! B6 A2!>)! | G8 | z2!<(! e4!<)! e2 | %231
w: ||lu- ce- at _|e- *|is.|in ae-|
 c3 c!>(! c2 c2!>)! | B8- | B4 A4 | !fermata!G8 |] %235
w: ter- num: qui- a|pi-|* us|es.|
V:4
!p! E,8 | B,,8 | E,4 E,4 |!<(! A,,8!<)! |!>(! E,8!>)! | G,3!<(! F, E,2 C,2!<)! | B,,3 B,, B,,4 | %7
w: |||||||
 z2!f! B,2 B,2 B,2 | G,3 G, G,4 | E,3 E, =E,4 | F,8- |!>(! F,8!>)! | B,,8 | z8 | z8 | z8 | %16
w: |||e-||is.||||
 z2!mf!"^Solo"!<(! B,2 A,2 A,!<)!A, | A,2 A,2 G,2 G,2 |!>(! F,6!>)! E,2 | B,,3 B,, B,,4 | z8 | z8 | %22
w: ||||||
 z2!mf! E,2 E,2 E,2 | C,8 | A,,4 A,,4 |!>(! B,,6!p! B,,2!>)! | B,,3 B,, B,,4 | %27
w: ad te, ad|te|om- nis|ca- ro|ve- ni- et.|
"^Tutti" C,3!<(! C, B,,2 B,,2!<)! | A,,8 |!>(! E,8!>)! |!<(! G,3 F,!<)! E,2 C,2 | B,,3 B,, B,,4 | %32
w: Re- qui- em ae-|ter-|nam|||
 z2!f! _A,2 A,2 A,2 | G,3 G, G,4 | A,4!>(! A,,2 =A,,2!>)! | B,,8- | B,,8 | !fermata!E,8 |] %38
w: ||lu- ce- at|e-||is.|
[K:Bb][M:4/4] z2!mf! G,4!<(! ^F,2 | G,2!<)! B,4 A,G, | ^F,2 G,4 F,2 |!>(! G,3 =F,!>)! =E,4 | %42
w: Ky- ri-|e e- * *|lei- * *||
 D,4 z4 | z8 |!mf! G,,4 A,,4 | B,,4 C,4 | D,8 | !fermata!G,,8 ||!mf! G,4!<(! F,2 F,2!<)! | %49
w: son,||Ky- ri-|e e-|lei-|son.|Chri- ste e-|
 E,4 D,4 | C,2 C,2 D,2 =E,2 | F,4 z4 | z2 F,4!>(! _E,E, | D,4!>)! C,4 | B,,4!f! E,4 |!>(! D,8!>)! | %56
w: lei- *|son e- lei- *|son,|Chri- ste e-|lei- *|son, e-|lei-|
 !fermata!D,8 || z8 | z8 | z8 | G,,4 A,,4 |!<(! B,,4 C,4!<)! |!>(! D,8!>)! | G,,2!f! G,3 G, G,2 | %64
w: son.||||Ky- ri-|e e-|lei-|son, Ky- ri- e|
 z2!mf!!<(! G,2 C,2 =B,,2!<)! |!>(! C,8!>)! | !fermata!G,,8 |][K:Eb][M:4/4]!p! E,2 E,4 B,,2 | %68
w: e- lei- *||son.||
 E,3 E, E,4 | C,3 C, B,,4 | E,3 E, E,2 E,2 |!<(! G,2 G,!<)!G, D,2 D,2 | G,,4 G,,4 | %73
w: |||||
 z2!mf! G,2 G,2 G,2 | C,3 C, C,4 | F,4 F,4 |!>(! F,4!>)! F,4 | z2 G,2 G,3 G, | %78
w: |||||
 G,2!>(! !^!D,4 D,2!>)! |!<(! E,2 E,2 E,2!<)! E,2 |!>(! D,4 D,4!>)! | D,3 D, D,2 D,D, | %82
w: ||||
 =B,,3 B,, B,,2 B,,2 |!<(! C,2 C,C, C,2!<)! C,2 | B,,4 B,,4 | z2!p! E,2 E,4 |!>(! E,2 E,2!>)! E,4 | %87
w: |||||
 B,,2 B,,2 B,,2 B,,2 | B,,3 B,, =A,,4 |!<(! B,,6!<)!!>(! B,,2!>)! | !fermata!E,8 |] %91
w: ||||
[M:4/4]!p! E,3 E, E,4 |!<(! E,4 E,4!<)! |!>(! A,,4!>)! C,2!mf! B,,2 | E,3 E, E,4 | %95
w: ||||
 E,2 E,E, G,2 G,G, | A,3 A, F,2 F,2 | D,2 D,D, D,2 D,2 | E,4 E,2 E,2 | C,4 C,2 C,2 | %100
w: |||||
!>(! D,4 D,2!>)!!p! D,2 | =B,,2 B,,2 B,,2 B,,2 | C,4 C,4 | C,3!<(! C, B,,4!<)! | E,4 E,2 E,2 | %105
w: |||||
 A,4 A,2 A,2 | G,4 G,2 G,G, | C,2 C,C, C,2 C,2 | F,3 F, F,2!mf! F,2 | B,2 B,,2 B,,2 B,,2 | %110
w: |||||
!>(! E,4 E,4!>)! | z2!mf!!<(! E,2 G,2 E,E,!<)! | (B,,2 B,4) =A,2 | B,3 B, B,4 | B,,2 D,2 E,2 =E,2 | %115
w: |sed sig- ni- fer|sanc- * tus|Mi- cha- el||
 F,2 F,F, F,2 F,2 |!>(! F,8 | B,,8!>)! | z2!p! B,2 B,2 B,2 |!<(! G,3 G,!<)! G,4 | z2 C,4 C,2 | %121
w: ||||||
 F,4 F,2 F,2 | B,,3!>(! B,, B,,4!>)! |!<(! B,,8-!<)! |!>(! B,,8!>)! | !fermata!E,8 || %126
w: |||||
!p! B,,3 B,, B,,2 B,,2 | F,2 F,2 F,E, D,2 | C,2 C,C, G,,2 =A,,A,, | B,,3 B,, B,,4 | %130
w: ||||
 z2!mf! B,,2 F,2 F,F, | G,2 G,F, =E,2 C,2 | F,2 F,2 F,2 _E,2 | D,3 D, D,2 D,2 | D,3 D, ^C,4 | %135
w: tu sus- ci- pe|pro a- ni- ma- bus|il- lis, qua- rum|ho- di- e me-|mo- ri- am|
 D,3!>(! D, D,4!>)! | G,4!<(! F,2 F,2!<)! | B,,3 B,, B,,2 B,,2 | E,4 E,2 =E,2 | F,4 F,2 F,2 | %140
w: fa- ci- mus,|||||
!>(! F,8!>)! | B,,8 | z2!p! B,2 B,2 B,2 |!<(! G,3 G,!<)! G,4 | z2 C,4 C,2 | F,4 F,2 F,2 | %146
w: ||||||
 B,,3!>(! B,, B,,4!>)! |!<(! B,,8-!<)! |!>(! B,,8!>)! | !fermata!E,8 |][K:Bb][M:4/4]!p! B,,8 | %151
w: |||||
 !fermata!F,8 |!mf! B,,8 | !fermata!F,8 |!<(! G,4 E,4!<)! |!f! B,3 B, B,4 | E,4 =E,4 | %157
w: ||||||
!>(! F,3 F,!>)! !fermata!F,4 ||!f! D4 C2 C2 |!>(! B,4 B,2!>)!!p! B,,2 |!<(! C,8!<)! | %161
w: ||||
!>(! G,,8!>)! |!<(! D,3 D,!<)! D,4 |!>(! D,4 D,4!>)! |!f! D3 D ^C4 |!>(! D4!>)! D,2!f! D2 | %166
w: ||||* * O-|
 =B,3 G, A,2 B,2 | C2 _B,A, B,2 A,G, | F,2 F,2 z4 | z4 z2 B,2 | G,3 E, F,2 G,2 |!>(! F,8!>)! | %172
w: san- na in ex-|cel- * * * * *|* sis,|o-|san- na in ex-|cel-|
 !fermata!B,,8 |][M:4/4]!p! B,,6!<(! B,,2 | D,4!<)! D,2 D,2 | C,4 C,2 E,2 |!>(! D,3 D,!>)! D,4 | %177
w: sis.|Be- ne-|dic- tus, qui|ve- nit in|no- mi- ne|
 D,3 D, D,2!<(! D,2!<)! |!mf! D3 D ^C4 | D3 D, D,2!f! D2 | =B,3 G, A,2 B,2 | C2 _B,A, B,2 A,G, | %182
w: Do- mi- ni, in|no- mi- ne|Do- mi- ni. O-|san- na in ex-|cel- * * * * *|
 F,2 F,2 z4 | z4 z2 B,2 | G,3 E, F,2 G,2 |!>(! F,8!>)! | !fermata!B,,8 |][M:4/4]!p! G,4 G,4 | %188
w: * sis,|o-|san- na in ex-|cel-|sis.|Ag- nus|
 G,4 G,,4 | z8 | z2!mf! G,4 G,2 | E,4 E,4 | C,4 C,4 | D,8- | !fermata!D,8 ||!mf! B,4 B,4 | %196
w: De- i,||do- na|e- is|re- qui-|em.||Ag- nus|
 B,4 B,,4 | z8 | z2!mf! B,4 B,2 | G,4 G,4 | E,4 E,4 | F,8- | !fermata!F,8 ||!f! D4 D4 | D4 D,4 | %205
w: De- i,||do- na|e- is|re- qui-|em.||Ag- nus|De- i:|
 z8 | z2 D,4 D,2 | =C,4 C,4 | B,,4 B,,4 | C,4 C,2 C,2 | D,8 | !fermata!G,,8 |][K:Eb][M:4/4] z8 | %213
w: |do- na|e- is|re- qui-|em sem- pi-|ter-|nam.||
 z8 | z2!p! E,2 E,2 E,2 | C,4 C,4 | A,,4 A,,4 |!p! B,,6 B,,2 | B,,8 |"^Tutti" C,3 C, B,,2 B,,2 | %220
w: |Cum sanc- tis|tu- is|qui- a|pi- us|es.|Re- qui- em ae-|
!<(! A,,8!<)! |!>(! E,8!>)! | G,3 F,!<(! E,2 C,2!<)! | B,,3 B,, B,,4 | z2!f! A,2 A,2 A,2 | %225
w: ter-|nam|do- na e- is|Do- mi- ne|et lux per-|
 G,3 G, G,4 |!>(! A,4 A,,2!>)! =A,,2 | B,,8- |!>(! B,,8!>)! | E,2!mf! E,2 E,2 E,2 | C,4 C,4 | %231
w: pe- tu- a|lu- ce- at|e-||is. Cum sanc- tis|tu- is|
 A,,4 A,,4 | B,,8 | B,,8 | !fermata!E,8 |] %235
w: qui- a|pi-|us|es.|

